X:276
T: Der Bauer ins Holz (38), S. 127f
N: T0165
O: Luxemburg
S: Singendes Volk, Esch-Alzette 1937 posth.]
N: Godbringen, Johann Trierweiler, 1908
R: Liebeslieder]
M: 6/8
L: 1/8
K: G
D | G2GF2F | E2ED2
D | GGGAGA | B4z
D | ccccdc | B2GA2
A | BdBAGA | GDDG2
A | BdBAGA | G4z

@@@ Tune index: 8330
